X:1
T:Not Made with Hands
T:Not Made with Hands
T:Arranged by Addie Avanelle Dyer
T:John S. Brown, 1900
T:Public Domain Courtesy of the Cyber Hymnal™
C:Arranged by Addie Avanelle Dyer
Z:Public Domain
Z:Courtesy of the Cyber Hymnal™
%%score ( 1 2 ) ( 3 4 )
L:1/8
Q:1/4=115
M:4/4
K:Eb
V:1 treble 
V:2 treble 
V:3 bass 
V:4 bass 
V:1
 [B,E]2 | [EG]2 [EG]2 [B,F]2 [B,E]2 | [EG]2 [EG]2 [B,F]2 [B,E]2 | B4 B4 | [EB]6 [EB]2 | %5
w: 1.~Christ|went a build- ing|to pre- pare, Not|made with|hands, And|
w: 2.~Put|on the ar- mor|of our God, Not|made with|hands, And|
w: 3.~Keep|fight- ing sin, that|aw- ful foe, Not|made with|hands, Un-|
w: 4.~Then|come up, child- ren,|get your crown, Not|made with|hands, When|
w: 5.~That|ci- ty’s built with|pre- cious stone, Not|made with|hands, With-|
 [Ec]2 [EB]2 [EB]2 [B,E]2 | [EG]2 [EG]2 [B,F]2 [B,E]2 | [EG]4- (GE) [DF]2 | [B,E]6 || %9
w: ’twill be decked with|jew- els rare, Not|made * * with|hands.|
w: take the path our|csap- tain trod, Not|made * * with|hands.|
w: til you hear the|trum- pet blow, Not|made * * with|hands.|
w: you have laid your|ar- mor down, Not|made * * with|hands.|
w: in we’ll ga- ther|’round the throne, Not|made * * with|hands.|
"^Refrain" E2 | (z2 E2) x6 | (z2 [EG]2) x6 | [GB]3 [Ac] [GB]2 [EG]2 | [DF]2 [B,E]4 E2 | %14
w: |||||
w: I|||know, I know, I|have an- o-|
w: |||||
w: |||||
w: |||||
 (z2 E2) x6 | (!fermata!z2 !fermata![B,E])[B,E] x6 | ([EG]4- GE) [DF]2 | [B,E]6 z2 |] %18
w: ||||
w: |* ther|build- * * ing;|I|
w: ||||
w: ||||
w: ||||
V:2
 x2 | x8 | x8 | (D2 E2) (F2 D2) | x8 | x8 | x8 | x4 E2 x2 | x6 || x2 | (G6 E2 E2) | (B6 G2 G2) | %12
 x8 | x8 | (G6 E2 E2) | (B6 G2 G2) | x4 E2 x2 | x8 |] %18
V:3
 [E,G,]2 | [E,B,]2 [E,B,]2 [E,B,]2 [E,G,]2 | [E,B,]2 [E,B,]2 [E,A,]2 [E,G,]2 | %3
w: ~|~ ~ ~ ~|~ ~ ~ ~|
 (F,2 G,2) (A,2 F,2) | [E,G,]6 [E,G,]2 | [E,A,]2 [E,G,]2 [E,G,]2 [E,G,]2 | %6
w: ~ * ~ *|~ ~|~ ~ ~ ~|
 [E,B,]2 [E,A,]2 [E,A,]2 [E,G,]2 | [B,,B,]4- (B,G,) [B,,A,]2 | [E,G,]6 || z2 | %10
w: ~ ~ ~ ~|~ * * ~|~||
 z2 [E,B,]2 [E,B,]2 z2 x2 | z2 [E,E]2 [E,E]2 [E,B,]2 x2 | [E,E]3 [E,E] [E,E]2 [E,B,]2 | %13
w: I know,|I know, ~|~ ~ ~ ~|
 [B,,A,]2 [E,G,]4 z2 | z2 [E,B,]2 [E,B,]2 z2 x2 | z2 [E,E]2 !fermata![E,E]2 [E,G,][E,G,] x2 | %16
w: I now,|I know||
 ([B,,B,]4- B,G,) [B,,A,]2 | [E,G,]6 z2 |] %18
w: ||
V:4
 x2 | x8 | x8 | B,,4 B,,4 | x8 | x8 | x8 | x4 B,,2 x2 | x6 || x2 | x10 | x10 | x8 | x8 | x10 | %15
 x10 | x4 B,,2 x2 | x8 |] %18

